dist/static/img/vako/svg/tech-ic_01.svg

<svg width="48" height="48" viewBox="0 0 48 48" fill="none" xmlns="http://www.w3.org/2000/svg">
<g clip-path="url(#clip0_3377_467)">
<path d="M16.0032 48.0011C20.4192 48.0011 24.0032 44.417 24.0032 40.0009V32.0007H16.0032C11.5872 32.0007 8.0032 35.5848 8.0032 40.0009C8.0032 44.417 11.5872 48.0011 16.0032 48.0011Z" fill="#0ACF83"/>
<path d="M8.0032 24.0007C8.0032 19.5846 11.5872 16.0005 16.0032 16.0005H24.0032V32.0009H16.0032C11.5872 32.0009 8.0032 28.4168 8.0032 24.0007Z" fill="#A259FF"/>
<path d="M8.0032 8.0002C8.0032 3.58409 11.5872 0 16.0032 0H24.0032V16.0004H16.0032C11.5872 16.0004 8.0032 12.4163 8.0032 8.0002Z" fill="#F24E1E"/>
<path d="M24.0032 0H32.0032C36.4192 0 40.0032 3.58409 40.0032 8.0002C40.0032 12.4163 36.4192 16.0004 32.0032 16.0004H24.0032V0Z" fill="#FF7262"/>
<path d="M40.0032 24.0007C40.0032 28.4168 36.4192 32.0009 32.0032 32.0009C27.5872 32.0009 24.0032 28.4168 24.0032 24.0007C24.0032 19.5846 27.5872 16.0005 32.0032 16.0005C36.4192 16.0005 40.0032 19.5846 40.0032 24.0007Z" fill="#1ABCFE"/>
</g>
<defs>
<clipPath id="clip0_3377_467">
<rect width="48" height="48.0012" fill="white"/>
</clipPath>
</defs>
</svg>

<svg width="48" height="48" viewBox="0 0 48 48" fill="none" xmlns="http://www.w3.org/2000/svg"><g clip-path="url(#clip0_3377_467)"><path d="M16.003 48.001c4.416 0 8-3.584 8-8v-8h-8c-4.416 0-8 3.584-8 8s3.584 8 8 8z" fill="#0ACF83"/><path d="M8.003 24c0-4.415 3.584-8 8-8h8v16h-8c-4.416 0-8-3.583-8-8z" fill="#A259FF"/><path d="M8.003 8c0-4.416 3.584-8 8-8h8v16h-8c-4.416 0-8-3.584-8-8z" fill="#F24E1E"/><path d="M24.003 0h8c4.416 0 8 3.584 8 8s-3.584 8-8 8h-8V0z" fill="#FF7262"/><path d="M40.003 24c0 4.417-3.584 8-8 8s-8-3.583-8-8c0-4.415 3.584-8 8-8s8 3.585 8 8z" fill="#1ABCFE"/></g><defs><clipPath id="clip0_3377_467"><path fill="#fff" d="M0 0h48v48.001H0z"/></clipPath></defs></svg>
